X: 32598
T: Planxty Noel Hill
R: reel
M: 4/4
K: Cmajor
|:decd edcG|AcGc Acec|decd edcG|(3ccc cB c2 L[c2e2]:|
|:E>F G2 c>d !roll!e2|dc !roll!e2 dc G2|E2 F2 G>F E2|1 D>C D2 D>E D2:|2 D>C D2 E>D C2||
B>c d2 c>B c2|B>A B2 A>G A2|B>c d2 e>f g2|f>e d2 c>B A2|
B>c d2 e>f g2|f>e d2 c>B A2|Bcdg fged|BG A2 GF G2||

